packages/icons/svg/Fill/shield-off.svg

<svg fill="none" height="24" viewBox="0 0 24 24" width="24" xmlns="http://www.w3.org/2000/svg"><path clip-rule="evenodd" d="m18.8389 16.0112c1.387-2.314 2.161-4.994 2.161-7.78104v-.145c0-.72-.39-1.387-1.019-1.743l-7.001-3.938c-.604-.34-1.355-.339-1.96.001l-3.70403 2.083zm-15.10751-9.45131c-.451.376-.731.927-.731 1.525v.145c0 5.46201 2.957 10.51801 7.71701 13.19601l.303.171c.302.17.641.254.98.254.338 0 .677-.085.98-.255l.302-.17c1.122-.631 2.139-1.398 3.047-2.268zm-.4384-3.2665c.391-.391 1.023-.391 1.414 0l16.00001 16.00001c.391.391.391 1.023 0 1.414-.195.195-.451.293-.707.293s-.512-.098-.707-.293l-16.00001-16.00001c-.391-.391-.391-1.023 0-1.414z" fill="#6b7280" fill-rule="evenodd"/></svg>

<svg width="24" height="24" viewBox="0 0 24 24" fill="none" xmlns="http://www.w3.org/2000/svg">
<g id="Icon/Fill/shield-off">
<path id="Mask" fill-rule="evenodd" clip-rule="evenodd" d="M18.8389 16.0112C20.2259 13.6972 20.9999 11.0172 20.9999 8.23019V8.08519C20.9999 7.36519 20.6099 6.69819 19.9809 6.34219L12.9799 2.40419C12.3759 2.06419 11.6249 2.06519 11.0199 2.40519L7.31591 4.48819L18.8389 16.0112ZM3.73141 6.55999C3.28041 6.93599 3.00041 7.48699 3.00041 8.08499V8.22999C3.00041 13.692 5.95741 18.748 10.7174 21.426L11.0204 21.597C11.3224 21.767 11.6614 21.851 12.0004 21.851C12.3384 21.851 12.6774 21.766 12.9804 21.596L13.2824 21.426C14.4044 20.795 15.4214 20.028 16.3294 19.158L3.73141 6.55999ZM3.29301 3.29339C3.68401 2.90239 4.31601 2.90239 4.70701 3.29339L20.707 19.2934C21.098 19.6844 21.098 20.3164 20.707 20.7074C20.512 20.9024 20.256 21.0004 20 21.0004C19.744 21.0004 19.488 20.9024 19.293 20.7074L3.29301 4.70739C2.90201 4.31639 2.90201 3.68439 3.29301 3.29339Z" fill="#000000"/>
</g>
</svg>
